icons/3_Generic/Gallery.svg

<svg width="1024" height="1024" viewBox="0 0 1024 1024" fill="none" xmlns="http://www.w3.org/2000/svg">
<g clip-path="url(#clip0_3_392)">
<path d="M512 1024C794.77 1024 1024 794.77 1024 512C1024 229.23 794.77 0 512 0C229.23 0 0 229.23 0 512C0 794.77 229.23 1024 512 1024Z" fill="#8C72BD"/>
<path d="M738.57 288H285.42C265.51 288 249.37 304.33 249.37 324.47V699.54C249.37 719.68 265.51 736.01 285.42 736.01H738.57C758.48 736.01 774.62 719.68 774.62 699.54V324.47C774.62 304.33 758.48 288 738.57 288ZM285.42 319.26H738.57C741.41 319.26 743.72 321.59 743.72 324.47V604.65L667.84 527.89C664.512 524.508 660.545 521.822 656.169 519.988C651.792 518.154 647.095 517.21 642.35 517.21C637.605 517.21 632.908 518.154 628.532 519.988C624.155 521.822 620.188 524.508 616.86 527.89L561.71 583.68L444.79 465.38C441.462 461.998 437.495 459.312 433.119 457.478C428.742 455.644 424.045 454.7 419.3 454.7C414.555 454.7 409.858 455.644 405.482 457.478C401.105 459.312 397.138 461.998 393.81 465.38L280.27 580.25V324.47C280.27 321.59 282.58 319.26 285.42 319.26ZM280.27 699.54V624.45L415.65 487.5C417.65 485.46 420.91 485.44 422.93 487.47C422.93 487.48 422.95 487.49 422.96 487.5L637.72 704.75H285.42C282.58 704.75 280.27 702.42 280.27 699.54ZM738.57 704.75H681.41L583.57 605.77L638.69 549.98C639.165 549.496 639.731 549.111 640.356 548.848C640.981 548.585 641.652 548.45 642.33 548.45C643.008 548.45 643.679 548.585 644.304 548.848C644.929 549.111 645.496 549.496 645.97 549.98L743.81 648.96V699.54C743.81 702.42 741.51 704.75 738.66 704.75H738.56H738.57ZM558.34 439.08C558.34 424.69 569.87 413.03 584.09 413.03C598.31 413.03 609.84 424.69 609.84 439.08C609.84 453.47 598.31 465.13 584.09 465.13C569.87 465.13 558.34 453.47 558.34 439.08Z" fill="white"/>
</g>
<defs>
<clipPath id="clip0_3_392">
<rect width="1024" height="1024" fill="white"/>
</clipPath>
</defs>
</svg>

<svg xmlns="http://www.w3.org/2000/svg" viewBox="0 0 1024 1024">
   <circle cx="512" cy="512" r="512" style="fill:#6750a4"/>
   <path d="M738.57 288H285.42c-19.91 0-36.05 16.33-36.05 36.47v375.07c0 20.14 16.14 36.47 36.05 36.47h453.15c19.91 0 36.05-16.33 36.05-36.47V324.47c0-20.14-16.14-36.47-36.05-36.47Zm-453.15 31.26h453.15c2.84 0 5.15 2.33 5.15 5.21v280.18l-75.88-76.76a35.759 35.759 0 0 0-50.98 0s-55.15 55.79-55.15 55.79l-116.92-118.3a35.759 35.759 0 0 0-50.98 0S280.27 580.25 280.27 580.25V324.47c0-2.88 2.31-5.21 5.15-5.21Zm-5.15 380.28v-75.09L415.65 487.5c2-2.04 5.26-2.06 7.28-.03 0 .01.02.02.03.03l214.76 217.25h-352.3c-2.84 0-5.15-2.33-5.15-5.21Zm458.3 5.21h-57.16l-97.84-98.98 55.12-55.79a5.095 5.095 0 0 1 7.28 0s97.84 98.98 97.84 98.98v50.58c0 2.88-2.3 5.21-5.15 5.21h-.1ZM558.34 439.08c0-14.39 11.53-26.05 25.75-26.05s25.75 11.66 25.75 26.05-11.53 26.05-25.75 26.05-25.75-11.66-25.75-26.05Z" style="fill:#fff"/>
</svg>
